icons/sodium_free.svg

<svg width="48" height="48" viewBox="0 0 48 48" fill="none" xmlns="http://www.w3.org/2000/svg">
<path d="M27 11C27 11.5523 26.5523 12 26 12C25.4477 12 25 11.5523 25 11C25 10.4477 25.4477 10 26 10C26.5523 10 27 10.4477 27 11Z" fill="black"/>
<path d="M29 11C29.5523 11 30 10.5523 30 10C30 9.44772 29.5523 9 29 9C28.4477 9 28 9.44772 28 10C28 10.5523 28.4477 11 29 11Z" fill="black"/>
<path d="M31 13C31 13.5523 30.5523 14 30 14C29.4477 14 29 13.5523 29 13C29 12.4477 29.4477 12 30 12C30.5523 12 31 12.4477 31 13Z" fill="black"/>
<path d="M23 24C23 23.4477 22.5523 23 22 23C21.4477 23 21 23.4477 21 24V33C21 33.5523 21.4477 34 22 34C22.5523 34 23 33.5523 23 33V24Z" fill="black"/>
<path d="M26 23C26.5523 23 27 23.4477 27 24V33C27 33.5523 26.5523 34 26 34C25.4477 34 25 33.5523 25 33V24C25 23.4477 25.4477 23 26 23Z" fill="black"/>
<path fill-rule="evenodd" clip-rule="evenodd" d="M44 24C44 35.0457 35.0457 44 24 44C12.9543 44 4 35.0457 4 24C4 12.9543 12.9543 4 24 4C35.0457 4 44 12.9543 44 24ZM36.0013 37.4155C32.8166 40.2664 28.6107 42 24 42C14.0589 42 6 33.9411 6 24C6 19.262 7.83061 14.9515 10.8231 11.7373L14.7929 15.7071C15.1834 16.0976 15.8166 16.0976 16.2071 15.7071C16.5976 15.3166 16.5976 14.6834 16.2071 14.2929L12.265 10.3508C15.4161 7.63912 19.5166 6 24 6C33.9411 6 42 14.0589 42 24C42 28.6107 40.2664 32.8166 37.4155 36.0013L30.3307 28.9165L29.8048 21.7795C29.7425 20.9346 29.3344 20.1928 28.7252 19.6885C28.8955 19.5092 29 19.2668 29 19V18C29 15.2386 26.7614 13 24 13C21.2386 13 19 15.2386 19 18V19C19 19.2668 19.1045 19.5092 19.2747 19.6885C18.6655 20.1928 18.2574 20.9346 18.1952 21.7795L17.2373 34.7795C17.1091 36.5185 18.4855 38 20.2292 38H27.7708C29.5145 38 30.8908 36.5185 30.7627 34.7795L30.5557 31.9699L36.0013 37.4155ZM26.8129 21H21.1871C20.6633 21 20.2283 21.4042 20.1898 21.9265L19.2319 34.9265C19.1892 35.5062 19.6479 36 20.2292 36H27.7708C28.352 36 28.8108 35.5062 28.7681 34.9265L27.8102 21.9265C27.7717 21.4042 27.3367 21 26.8129 21ZM27 18H21C21 16.3431 22.3431 15 24 15C25.6569 15 27 16.3431 27 18Z" fill="black"/>
</svg>

<svg
  xmlns="http://www.w3.org/2000/svg"
  width="24"
  height="24"
  viewBox="0 0 24 24"
  fill="none"
  stroke="currentColor"
  stroke-width="2"
  stroke-linecap="round"
  stroke-linejoin="round"
>
  <path d="M27 11a1 1 0 1 1-2 0 1 1 0 0 1 2 0" />
  <path d="M29 11a1 1 0 1 0 0-2 1 1 0 0 0 0 2" />
  <path d="M31 13a1 1 0 1 1-2 0 1 1 0 0 1 2 0" />
  <path d="M23 24a1 1 0 1 0-2 0v9a1 1 0 1 0 2 0z" />
  <path d="M26 23a1 1 0 0 1 1 1v9a1 1 0 1 1-2 0v-9a1 1 0 0 1 1-1" />
  <path
    fill-rule="evenodd"
    d="M44 24c0 11.046-8.954 20-20 20S4 35.046 4 24 12.954 4 24 4s20 8.954 20 20m-7.999 13.416A17.93 17.93 0 0 1 24 42c-9.941 0-18-8.059-18-18 0-4.738 1.83-9.048 4.823-12.263l3.97 3.97a1 1 0 0 0 1.414-1.414l-3.942-3.942A17.93 17.93 0 0 1 24 6c9.941 0 18 8.059 18 18 0 4.61-1.734 8.817-4.584 12.001l-7.085-7.084-.526-7.138a3 3 0 0 0-1.08-2.09A1 1 0 0 0 29 19v-1a5 5 0 0 0-10 0v1c0 .267.105.51.275.689a3 3 0 0 0-1.08 2.09l-.958 13A3 3 0 0 0 20.23 38h7.542a3 3 0 0 0 2.992-3.22l-.207-2.81zM26.813 21h-5.626a1 1 0 0 0-.997.927l-.958 13A1 1 0 0 0 20.229 36h7.542a1 1 0 0 0 .997-1.074l-.958-13a1 1 0 0 0-.997-.926M27 18h-6a3 3 0 1 1 6 0"
    clip-rule="evenodd"
  />
</svg>
